; generated by PrusaSlicer 2.7.0
; extruder_colour = #FF0000;#00FF00;#0000FF
; filament_type = PLA;PETG;ABS
; temperature = 210;230;250
;
; Test multi-tool print
; This file will be used to test the G-code preprocessor
;
G28 ; Home all axes
G90 ; Absolute positioning

; Start with T0
T0
M109 T0 S210 ; Heat T0
G1 X50 Y50 E5
G1 X100 Y50 E10
G1 X100 Y100 E15

; Switch to T1 for middle section
T1
M109 T1 S230 ; Heat T1
G1 X50 Y100 E20
G1 X50 Y50 E25
G1 X100 Y50 E30

; Switch to T2 for final section
T2
M109 T2 S250 ; Heat T2
G1 X100 Y100 E35
G1 X50 Y100 E40
G1 X50 Y50 E45

; Back to T0 for finish
T0
G1 X100 Y50 E50
G1 X100 Y100 E55
G1 X50 Y100 E60

; End of print
G28 X Y ; Home X and Y
M84 ; Disable motors
